X: 0
T: Joe Derrane's
C: Martin Hardiman
M: 6/8
L: 1/8
K: Bmin
|:"Bm"B3 BAF|"A"AFE E2F|"D"DEF def|afe dBA|
"Bm"BdB BAF|"A"AFE E2F|"D"D2A def|"Bm"edB B2A:|
|:"Em"e2e edB|"A7"~A3 "D"d2A|def ~a3|baf afa|
"Bm"baf afa|baf edB|"D"def afe|1"Bm"dBA B2d:|2 "Bm"dBA B3 |]